svgs/sharp-regular/meter.svg

<svg xmlns="http://www.w3.org/2000/svg" viewBox="0 0 512 512"><!--! Font Awesome Pro 6.6.0 by @fontawesome - https://fontawesome.com License - https://fontawesome.com/license (Commercial License) Copyright 2024 Fonticons, Inc. --><path d="M464 256A208 208 0 1 0 48 256a208 208 0 1 0 416 0zM0 256a256 256 0 1 1 512 0A256 256 0 1 1 0 256zM192 152l0 48 0 24-48 0 0-24 0-48 0-24 48 0 0 24zm88 0l0 48 0 24-48 0 0-24 0-48 0-24 48 0 0 24zm88 0l0 48 0 24-48 0 0-24 0-48 0-24 48 0 0 24z"/></svg>

<svg xmlns="http://www.w3.org/2000/svg" viewBox="0 0 512 512"><!--! Font Awesome Pro 6.4.0 by @fontawesome - https://fontawesome.com License - https://fontawesome.com/license (Commercial License) Copyright 2023 Fonticons, Inc. --><path d="M464 256A208 208 0 1 0 48 256a208 208 0 1 0 416 0zM0 256a256 256 0 1 1 512 0A256 256 0 1 1 0 256zM192 152v48 24H144V200 152 128h48v24zm88 0v48 24H232V200 152 128h48v24zm88 0v48 24H320V200 152 128h48v24z"/></svg>
